!!!COM:	Anonymous
!!!OTL:	Sans jamais / Allez &agrave; la foug&egrave;re
!!!AGN:	Song; Chanson
!!!SCT:	Ano3035
!!!SCA:	Ano3035
!!!SMS:	Dijon Chansonnier
!!!folio:	
!!!voices:	4
**kern	**kern	**kern	**kern
*staff4	*staff3	*staff2	*staff1
*Ivox	*Ivox	*Ivox	*Ivox
*I"Contratenor2	*I"Tenor	*I"Contratenor1	*I"Superius
*I'Ct2	*I'T	*I'Ct1	*I'S
*clefF4	*clefGv2	*clefGv2	*clefG2
*k[b-]	*k[b-]	*k[b-]	*k[]
*M2/1	*M2/1	*M2/1	*M2/1
*met(C|)	*met(C|)	*met(C|)	*met(C|)
=1-	=1-	=1-	=1-
!	!	!LO:TX:i:Y=32:t=Sans jamais...	!LO:TX:Y=32:t=Sans jamais
0G	0r	1d	0g
.	.	1e	.
=2	=2	=2	=2
1F	0r	2f	1a
.	.	1d	.
1G	.	.	1b-i
.	.	[2e	.
=3	=3	=3	=3
1A	0r	2e]	1cc
.	.	1f	.
1B-	.	.	2b-i
.	.	2d	2g
=4	=4	=4	=4
2c	0r	2e	2a
2G	.	1g	2b-i
1A	.	.	1cc
.	.	2f#i	.
=5	=5	=5	=5
!	!LO:TX:Y=32:t=Allez &agrave; la foug&egrave;re...	!	!
0G	0d	1g	2.b-i
.	.	.	4cc
.	.	1r	2dd
.	.	.	[2ee-i
=6	=6	=6	=6
1E-i	1G	1g	2ee-]
.	.	.	1cc
1D	1d	1f	.
.	.	.	2b
=7	=7	=7	=7
1C	1e-i	2g	1cc
.	.	1a	.
2.D	1d	.	1r
.	.	[2f	.
4E	.	.	.
=8	=8	=8	=8
1F	1c	2f]	1a
.	.	2a	.
1G	1B-	2d	1b-i
.	.	[2e	.
=9	=9	=9	=9
0A	0c	2e]	2.a
.	.	2c	.
.	.	.	4b-i
.	.	2e	1cc
.	.	2f	.
=10	=10	=10	=10
1G	1d	1g	1b-i
2D	1d	2f	2a
[2G	.	2d	[2b-i
=11	=11	=11	=11
2G]	2B-	2g	4b-]
.	.	.	4g
2C	2c	4f	1g
.	.	4e	.
1D	1A	2.d	.
.	.	.	2f#i
.	.	4c	.
=12	=12	=12	=12
1r	0G	1.d	1.g
1B-	.	.	.
.	.	4e	2a
.	.	4f	.
=13	=13	=13	=13
2G	0r	2g	4b-i
.	.	.	4cc
2B-	.	2d	1dd
1A	.	1e	.
.	.	.	2cc#i
=14	=14	=14	=14
0r	1G	1d	1.dd
.	1G	1g	.
.	.	.	4cc
.	.	.	4b-i
=15	=15	=15	=15
0D	1d	1.f	0a
.	1d	.	.
.	.	4e	.
.	.	4d	.
=16	=16	=16	=16
1A	1e	1c	1cc
1G	1e	1g	1b-i
=17	=17	=17	=17
1A	0c	1e	0cc
[1F	.	1f	.
=18	=18	=18	=18
1F]	0f	1r	0a
1D	.	1d	.
=19	=19	=19	=19
1A	1e	2.e	1cc
.	.	4f	.
2B-	1d	1g	1dd
[2G	.	.	.
=20	=20	=20	=20
2G]	1d	2d	1b-i
2B-	.	1g	.
1A	1c	.	1cc
.	.	2f#i	.
=21	=21	=21	=21
*	*	*M2/1	*
*	*	*met(3)	*
0G	0d	3%2g	0b-i
.	.	3%2d	.
.	.	3%2e	.
=22	=22	=22	=22
*	*	*M2/1	*
*	*	*met(C|)	*
1F	0r	4f	1a
.	.	4c	.
.	.	2f	.
1G	.	2e	1b-i
.	.	2d	.
=23	=23	=23	=23
1A	0r	1c	1cc
1F	.	1d	1a
=24	=24	=24	=24
0E	0r	1.e	0g
.	.	2g	.
=25	=25	=25	=25
0D	1d	2.f	1.a
.	.	4g	.
.	1f	2a	.
.	.	2f	2b-i
=26	=26	=26	=26
1C	1e	1.g	1cc
1G	1d	.	1b-i
.	.	2e	.
=27	=27	=27	=27
1A	1c	[0e	1a
1E	1B-	.	1g
=28	=28	=28	=28
2A	0A	0e]	1.a
2.c	.	.	.
4B-	.	.	.
4A	.	.	2b-i
4G	.	.	.
=29	=29	=29	=29
1F	0A	[0f	1cc
2.D	.	.	[1dd
4C	.	.	.
=30	=30	=30	=30
2.D	1.d	0f]	1dd]
4E	.	.	.
1F	.	.	1a
.	2c	.	.
=31	=31	=31	=31
1G	1B-	1d	1b-i
2.F	2.A	1f	[1cc
8EL	4B-	.	.
8DJ	.	.	.
=32	=32	=32	=32
1C	1G	1e	1cc]
[1D	1F	[1f	[1a
=33	=33	=33	=33
1D]	0A	2f]	0a_
.	.	2g	.
1F	.	1a	.
=34	=34	=34	=34
1D	1d	1f	1a]
2G	1d	2g	2.b-
2D	.	2f	.
.	.	.	4a
=35	=35	=35	=35
2E	2B-	2.e	2g
2C	2c	.	1g
.	.	4d	.
1D	1A	2.d	.
.	.	.	2f#i
.	.	4c	.
=36	=36	=36	=36
[0dl	[0Gl	0d	[0gl
=37	=37	=37	=37
0d]	0G]	0dl	0g]
==	==	==	==
*-	*-	*-	*-
!!!RDF**kern: l=long note in original notation
!!!RDF**kern: i=editorial accidental
!!!ENC:	Chris Gage 03-06-2015
!!!END:	2015/03/13/
!!!EED:	Jesse Rodin
!!!EEV:	2016/02/22/
!!!ONB:	Translated from MusicXML and edited on 2016/02/22/ by Craig Sapp
!!muse2ps: C^@{COM}\n@{SMS} @{folio}^v85,85,85,150Q16
